src/components/paint-editor/icons/bitmap.svg

<svg width="20" height="20" xmlns="http://www.w3.org/2000/svg"><path d="M4 3h12v1H4V3zM2 5h1v8H2V5zm15 0h1v8h-1V5zM2 13h16v2H2v-2zm2-1h12v1H4v-1zm1-1h3v1H5v-1zm1-1h1v1H6v-1zm3 1h7v1H9v-1zm1-1h5v1h-5v-1zm1-1h3v1h-3V9zm1-1h1v1h-1V8zm4 4h1v1h-1v-1zM3 15h14v1H3v-1zM3 4h1v1H3V4zm13 0h1v1h-1V4zM4 16h12v1H4v-1z" fill="#FFF" fill-rule="evenodd"/></svg>

<?xml version="1.0" encoding="UTF-8" standalone="no"?>
<svg width="20px" height="20px" viewBox="0 0 20 20" version="1.1" xmlns="http://www.w3.org/2000/svg" xmlns:xlink="http://www.w3.org/1999/xlink">
    <!-- Generator: Sketch 47.1 (45422) - http://www.bohemiancoding.com/sketch -->
    <title>bitmap</title>
    <desc>Created with Sketch.</desc>
    <defs></defs>
    <g id="Page-1" stroke="none" stroke-width="1" fill="none" fill-rule="evenodd">
        <g id="bitmap" fill="#FFFFFF">
            <path d="M4,3 L16,3 L16,4 L4,4 L4,3 Z M2,5 L3,5 L3,13 L2,13 L2,5 Z M17,5 L18,5 L18,13 L17,13 L17,5 Z M2,13 L18,13 L18,15 L2,15 L2,13 Z M4,12 L16,12 L16,13 L4,13 L4,12 Z M5,11 L8,11 L8,12 L5,12 L5,11 Z M6,10 L7,10 L7,11 L6,11 L6,10 Z M9,11 L16,11 L16,12 L9,12 L9,11 Z M10,10 L15,10 L15,11 L10,11 L10,10 Z M11,9 L14,9 L14,10 L11,10 L11,9 Z M12,8 L13,8 L13,9 L12,9 L12,8 Z M16,12 L17,12 L17,13 L16,13 L16,12 Z M3,15 L17,15 L17,16 L3,16 L3,15 Z M3,4 L4,4 L4,5 L3,5 L3,4 Z M16,4 L17,4 L17,5 L16,5 L16,4 Z M4,16 L16,16 L16,17 L4,17 L4,16 Z" id="Combined-Shape"></path>
        </g>
    </g>
</svg>
